X:1
T:Du Friedensfürst, Herr Jeu Christ
T:Du Friedensfürst, Herr Jeu Christ
T:Bartholomaus Gesius, 1601; harm by Bach 1724
T:Public Domain Courtesy of the Cyber Hymnal™
C:Bartholomaus Gesius, 1601; harm by Bach 1724
Z:Public Domain
Z:Courtesy of the Cyber Hymnal™
%%score ( 1 2 ) ( 3 4 )
L:1/8
Q:1/4=115
M:4/4
K:F
V:1 treble 
V:2 treble 
V:3 bass 
V:4 bass 
V:1
 [FA]2 | [DF]2 [EG]2 [FA]2 [Gc]2 | B4 [FA]2 [Fc]2 | [FB]2 [FA]2 G2 [EG]2 | [FA]6 [FA]2 | %5
 [DF]2 [EG]2 [FA]2 [Gc]2 | B4 [FA]2 [Fc]2 | [FB]2 [FA]2 G2 [EG]2 | [FA]6 [EG]2 | %9
 [CG]2 [EG]2 [FA]2 [EG]2 | [DF]2 [EG]2 [^CE]2 [CE]2 | [DF]2 [EG]2 [FA]2 GA | [FB]2 [FA]2 G2 [EG]2 | %13
 [CF]6 |] %14
V:2
 x2 | x8 | F2 G2 x4 | x4 F2 x2 | x8 | x8 | F2 G2 x4 | x4 F2 x2 | x8 | x8 | x8 | x6 C2 | x4 F2 x2 | %13
 x6 |] %14
V:3
 [F,C]2 | B,-B, [G,B,]2 [F,C]2 [E,C]2 | [D,D]2 [E,C]2 [F,C]2 [A,,C]2 | D2 [F,C]2 [B,,D]2 [C,C]2 | %4
 [F,,C]6 [F,C]2 | B,-[A,B,] [G,B,]2 [F,C]2 [E,C]2 | [D,D]2 [E,C]2 [F,C]2 [A,,C]2 | %7
 D2 [F,C]2 [B,,D]2 [C,C]2 | [F,,C]6 C2 | [E,G,]2 [C,C]2 [F,C]2 (CB,) | %10
 [D,A,]2 [G,,B,]2 [A,,A,]2 [A,,A,]2 | [D,A,]2 [C,C]2 C4 | [D,B,]2 [C,C]2 [B,,D]2 (CB,) | %13
 [F,,A,]6 |] %14
V:4
 x2 | x A, x6 | x8 | (D,E,) x6 | x8 | x8 | x8 | (D,E,) x6 | x6 (C,D,) | x6 C,2 | x8 | x4 F,2 E,2 | %12
 x6 C,2 | x6 |] %14

